;FLAVOR:Marlin
;TIME:20359
;Filament used: 15.8142m
;Layer height: 0.16
;MINX:48.915
;MINY:31.84
;MINZ:0.2
;MAXX:169.315
;MAXY:182.239
;MAXZ:5.84
;Generated with Cura_SteamEngine 4.8.0
M140 S60
M105
M190 S60
M104 S200
M105
M109 S200
M82 ;absolute extrusion mode
; Ender 3 Custom Start G-code
G92 E0 ; Reset Extruder
G28 ; Home all axes
G1 Z2.0 F3000 ; Move Z Axis up little to prevent scratching of Heat Bed
G1 X0.1 Y20 Z0.3 F5000.0 ; Move to start position
G1 X0.1 Y200.0 Z0.3 F1500.0 E15 ; Draw the first line
G1 X0.4 Y200.0 Z0.3 F5000.0 ; Move to side a little
G1 X0.4 Y20 Z0.3 F1500.0 E30 ; Draw the second line
G92 E0 ; Reset Extruder
G1 Z2.0 F3000 ; Move Z Axis up little to prevent scratching of Heat Bed
G1 X5 Y20 Z0.3 F5000.0 ; Move over to prevent blob squish
G92 E0
G92 E0
G1 F1500 E-6.5
;LAYER_COUNT:32
;LAYER:0
M107
G0 F6000 X51.842 Y38.1 Z0.2
;TYPE:SKIRT
G1 F1500 E0
G1 F1200 X52.143 Y37.701 E0.01662
G1 X52.998 Y36.699 E0.06043
G1 X53.253 Y36.434 E0.07267
G1 X53.753 Y35.946 E0.0959
G1 X54.059 Y35.666 E0.1097
G1 X55.08 Y34.838 E0.15342
G1 X55.443 Y34.578 E0.16827
G1 X55.926 Y34.251 E0.18767
G1 X55.998 Y34.205 E0.19051
G1 X56.404 Y33.958 E0.20632
G1 X56.668 Y33.805 E0.21647
G1 X57.296 Y33.468 E0.24017
G1 X57.423 Y33.405 E0.24489
G1 X57.92 Y33.174 E0.26312
G1 X58.191 Y33.056 E0.27295
G1 X58.65 Y32.868 E0.28945
G1 X58.731 Y32.837 E0.29233
G1 X59.558 Y32.557 E0.32137
G1 X60.078 Y32.404 E0.3394
G1 X61.362 Y32.109 E0.38322
G1 X61.797 Y32.036 E0.39789
G1 X62.767 Y31.917 E0.43039
G1 X63.128 Y31.889 E0.44243
G1 X63.796 Y31.858 E0.46468
G1 X64.942 Y31.84 E0.5028
G1 X153.408 Y31.84 E3.44519
G1 X154.188 Y31.85 E3.47113
G1 X154.514 Y31.86 E3.48198
G1 X154.921 Y31.878 E3.49553
G1 X155.25 Y31.897 E3.50649
G1 X155.398 Y31.908 E3.51143
G1 X156.341 Y32.019 E3.54301
G1 X156.693 Y32.076 E3.55487
G1 X157.101 Y32.15 E3.56866
G1 X158.097 Y32.387 E3.60271
G1 X158.503 Y32.504 E3.61677
G1 X159.025 Y32.669 E3.63497
G1 X159.235 Y32.741 E3.64236
G1 X159.934 Y33.007 E3.66723
G1 X160.334 Y33.183 E3.68177
G1 X160.655 Y33.332 E3.69354
G1 X161.494 Y33.767 E3.72497
G1 X161.95 Y34.031 E3.7425
G1 X162.051 Y34.092 E3.74642
G1 X162.713 Y34.525 E3.77273
G1 X162.904 Y34.66 E3.78051
G1 X163.123 Y34.819 E3.78951
G1 X163.385 Y35.014 E3.80037
G1 X164.112 Y35.605 E3.83154
G1 X164.463 Y35.93 E3.84745
G1 X164.764 Y36.221 E3.86137
G1 X165.249 Y36.721 E3.88454
G1 X165.505 Y37.002 E3.89718
G1 X166.3 Y37.981 E3.93913
G1 X166.578 Y38.367 E3.95495
G1 X167.12 Y39.195 E3.98787
G1 X167.246 Y39.408 E3.9961
G1 X167.707 Y40.275 E4.02876
G1 X167.922 Y40.726 E4.04537
G1 X168.147 Y41.229 E4.0637
G1 X168.192 Y41.337 E4.06759
G1 X168.588 Y42.455 E4.10704
G1 X168.75 Y43.004 E4.12608
G1 X169.046 Y44.282 E4.16971
G1 X169.123 Y44.737 E4.18506
G1 X169.242 Y45.7 E4.21733
G1 X169.263 Y45.964 E4.22614
G1 X169.293 Y46.52 E4.24466
G1 X169.31 Y47.112 E4.26436
G1 X169.315 Y47.428 E4.27487
G1 X169.315 Y166.476 E8.23442
G1 X169.306 Y167.111 E8.25554
G1 X169.296 Y167.447 E8.26672
G1 X169.278 Y167.849 E8.28011
G1 X169.26 Y168.156 E8.29034
G1 X169.249 Y168.307 E8.29537
G1 X169.137 Y169.266 E8.32749
G1 X169.08 Y169.618 E8.33935
G1 X169.019 Y169.958 E8.35084
G1 X168.777 Y170.985 E8.38593
G1 X168.639 Y171.465 E8.40254
G1 X168.415 Y172.156 E8.4267
G1 X168.344 Y172.353 E8.43367
G1 X167.97 Y173.261 E8.46633
G1 X167.877 Y173.461 E8.47366
G1 X167.581 Y174.052 E8.49565
G1 X167.353 Y174.474 E8.5116
G1 X166.986 Y175.102 E8.53579
G1 X166.908 Y175.226 E8.54067
G1 X166.386 Y175.984 E8.57128
G1 X166.1 Y176.364 E8.5871
G1 X165.23 Y177.383 E8.63166
G1 X164.962 Y177.661 E8.6445
G1 X164.472 Y178.139 E8.66727
G1 X164.175 Y178.411 E8.68067
G1 X163.158 Y179.237 E8.72424
G1 X162.79 Y179.501 E8.73931
G1 X162.249 Y179.865 E8.76099
G1 X161.948 Y180.051 E8.77276
G1 X161.751 Y180.168 E8.78038
G1 X160.862 Y180.642 E8.81389
G1 X160.425 Y180.85 E8.82999
G1 X159.83 Y181.112 E8.85161
G1 X159.719 Y181.157 E8.8556
G1 X158.712 Y181.51 E8.89109
G1 X158.162 Y181.673 E8.91017
G1 X156.872 Y181.972 E8.95421
G1 X156.423 Y182.048 E8.96936
G1 X155.446 Y182.168 E9.00209
G1 X155.178 Y182.189 E9.01104
G1 X154.661 Y182.218 E9.02826
G1 X154.146 Y182.234 E9.0454
G1 X153.804 Y182.239 E9.05677
G1 X64.672 Y182.239 E12.02131
G1 X64.014 Y182.23 E12.0432
G1 X63.665 Y182.22 E12.05481
G1 X63.335 Y182.205 E12.0658
G1 X62.889 Y182.177 E12.08066
G1 X61.923 Y182.065 E12.11301
G1 X61.53 Y182.002 E12.12625
G1 X61.116 Y181.928 E12.14023
G1 X60.149 Y181.697 E12.1733
G1 X59.701 Y181.568 E12.18881
G1 X59.275 Y181.435 E12.20365
G1 X58.423 Y181.117 E12.2339
G1 X58.055 Y180.962 E12.24718
G1 X57.461 Y180.691 E12.2689
G1 X57.248 Y180.586 E12.27679
G1 X56.592 Y180.235 E12.30154
G1 X56.461 Y180.159 E12.30658
G1 X56.179 Y179.989 E12.31753
G1 X55.997 Y179.876 E12.32465
G1 X55.178 Y179.315 E12.35767
G1 X54.772 Y179.009 E12.37458
G1 X53.778 Y178.163 E12.41799
G1 X53.557 Y177.951 E12.42818
G1 X53.071 Y177.454 E12.4513
G1 X52.744 Y177.098 E12.46738
G1 X51.891 Y176.046 E12.51242
G1 X51.637 Y175.69 E12.52697
G1 X51.323 Y175.226 E12.5456
G1 X51.091 Y174.851 E12.56027
G1 X50.978 Y174.66 E12.56765
G1 X50.513 Y173.787 E12.60055
G1 X50.305 Y173.35 E12.61665
G1 X50.03 Y172.722 E12.63945
G1 X49.983 Y172.605 E12.64364
G1 X49.635 Y171.601 E12.67899
G1 X49.481 Y171.076 E12.69718
G1 X49.257 Y170.174 E12.72809
G1 X49.2 Y169.894 E12.7376
G1 X49.058 Y169.016 E12.76718
G1 X49.021 Y168.709 E12.77747
G1 X48.955 Y167.929 E12.8035
G1 X48.941 Y167.642 E12.81306
G1 X48.929 Y167.275 E12.82527
G1 X48.915 Y166.262 E12.85897
G1 X48.915 Y47.585 E16.80618
G1 X48.924 Y46.965 E16.8268
G1 X48.934 Y46.633 E16.83785
G1 X48.952 Y46.231 E16.85123
G1 X48.977 Y45.817 E16.86503
G1 X49.093 Y44.815 E16.89858
G1 X49.151 Y44.458 E16.91061
G1 X49.227 Y44.041 E16.92471
G1 X49.468 Y43.043 E16.95885
G1 X49.613 Y42.545 E16.9761
G1 X50.045 Y41.33 E17.01899
G1 X50.203 Y40.957 E17.03247
G1 X50.456 Y40.403 E17.05272
G1 X50.559 Y40.193 E17.0605
G1 X50.925 Y39.508 E17.08633
G1 X51 Y39.379 E17.0913
G1 X51.264 Y38.946 E17.10817
G1 X51.842 Y38.1 E17.14224
G0 F6000 X52.161 Y38.341
G1 F1200 X52.462 Y37.942 E17.15887
G1 X53.286 Y36.976 E17.2011
G1 X53.541 Y36.711 E17.21333
G1 X54.023 Y36.241 E17.23572
G1 X54.329 Y35.961 E17.24952
G1 X55.313 Y35.163 E17.29165
G1 X55.676 Y34.903 E17.3065
G1 X56.141 Y34.588 E17.32519
G1 X56.213 Y34.542 E17.32803
G1 X56.605 Y34.304 E17.34328
G1 X56.869 Y34.151 E17.35343
G1 X57.473 Y33.826 E17.37624
G1 X57.6 Y33.763 E17.38096
G1 X58.079 Y33.54 E17.39853
G1 X58.35 Y33.422 E17.40836
G1 X58.793 Y33.241 E17.42428
G1 X58.874 Y33.21 E17.42716
G1 X59.671 Y32.941 E17.45514
G1 X60.191 Y32.788 E17.47317
G1 X61.429 Y32.503 E17.51542
G1 X61.864 Y32.43 E17.53009
G1 X62.798 Y32.316 E17.56139
G1 X63.159 Y32.288 E17.57343
G1 X63.803 Y32.257 E17.59487
G1 X64.766 Y32.241 E17.62691
G1 X153.408 Y32.24 E20.57515
G1 X154.182 Y32.25 E20.6009
G1 X154.496 Y32.259 E20.61135
G1 X154.903 Y32.277 E20.6249
G1 X155.221 Y32.296 E20.63549
G1 X155.369 Y32.307 E20.64043
G1 X156.277 Y32.414 E20.67084
G1 X156.629 Y32.471 E20.6827
G1 X157.026 Y32.543 E20.69612
G1 X157.986 Y32.771 E20.72893
G1 X158.392 Y32.888 E20.74299
G1 X158.895 Y33.047 E20.76053
G1 X159.105 Y33.119 E20.76792
G1 X159.78 Y33.376 E20.79194
G1 X160.166 Y33.546 E20.80597
G1 X160.487 Y33.695 E20.81774
G1 X161.295 Y34.114 E20.84801
G1 X161.743 Y34.373 E20.86522
G1 X161.844 Y34.434 E20.86915
G1 X162.482 Y34.852 E20.89452
G1 X162.673 Y34.987 E20.9023
G1 X162.884 Y35.14 E20.91096
G1 X163.146 Y35.335 E20.92183
G1 X164.185 Y36.217 E20.96716
G1 X164.486 Y36.508 E20.98108
G1 X164.954 Y36.99 E21.00343
G1 X165.21 Y37.271 E21.01607
G1 X165.975 Y38.215 E21.05648
G1 X166.253 Y38.601 E21.0723
G1 X166.775 Y39.399 E21.10402
G1 X166.901 Y39.612 E21.11225
G1 X167.346 Y40.448 E21.14375
G1 X167.561 Y40.899 E21.16037
G1 X167.778 Y41.383 E21.17801
G1 X167.823 Y41.491 E21.1819
G1 X168.205 Y42.568 E21.21991
G1 X168.367 Y43.117 E21.23895
G1 X168.651 Y44.348 E21.28097
G1 X168.728 Y44.803 E21.29631
G1 X168.844 Y45.731 E21.32742
G1 X168.865 Y45.995 E21.33623
G1 X168.894 Y46.532 E21.35412
G1 X168.911 Y47.124 E21.37381
G1 X168.915 Y47.428 E21.38393
G1 X168.915 Y166.47 E25.34328
G1 X168.906 Y167.105 E25.3644
G1 X168.896 Y167.429 E25.37518
G1 X168.878 Y167.831 E25.38857
G1 X168.861 Y168.127 E25.39843
G1 X168.85 Y168.278 E25.40346
G1 X168.742 Y169.202 E25.4344
G1 X168.685 Y169.554 E25.44626
G1 X168.626 Y169.885 E25.45745
G1 X168.392 Y170.875 E25.49128
G1 X168.254 Y171.355 E25.50789
G1 X168.039 Y172.02 E25.53114
G1 X167.968 Y172.217 E25.5381
G1 X167.608 Y173.092 E25.56957
G1 X167.515 Y173.292 E25.57691
G1 X167.229 Y173.862 E25.59812
G1 X167.001 Y174.284 E25.61407
G1 X166.647 Y174.889 E25.63739
G1 X166.569 Y175.013 E25.64226
G1 X166.066 Y175.743 E25.67175
G1 X165.78 Y176.123 E25.68756
G1 X164.942 Y177.106 E25.73053
G1 X164.674 Y177.384 E25.74337
G1 X164.202 Y177.844 E25.76529
G1 X163.905 Y178.116 E25.77869
G1 X162.925 Y178.912 E25.82068
G1 X162.557 Y179.176 E25.83574
G1 X162.034 Y179.528 E25.85671
G1 X161.744 Y179.707 E25.86804
G1 X161.547 Y179.824 E25.87567
G1 X160.69 Y180.281 E25.90797
G1 X160.253 Y180.489 E25.92407
G1 X159.679 Y180.741 E25.94492
G1 X159.568 Y180.786 E25.9489
G1 X158.598 Y181.126 E25.98309
G1 X158.048 Y181.289 E26.00217
G1 X156.805 Y181.577 E26.0446
G1 X156.356 Y181.653 E26.05975
G1 X155.415 Y181.77 E26.09129
G1 X155.147 Y181.791 E26.10023
G1 X154.648 Y181.818 E26.11685
G1 X154.133 Y181.834 E26.13399
G1 X153.804 Y181.839 E26.14493
G1 X64.677 Y181.839 E29.10931
G1 X64.019 Y181.83 E29.1312
G1 X63.683 Y181.82 E29.14238
G1 X63.353 Y181.805 E29.15336
G1 X63.088 Y181.79 E29.16219
G1 X62.918 Y181.778 E29.16786
G1 X61.986 Y181.67 E29.19906
G1 X61.593 Y181.607 E29.2123
G1 X61.191 Y181.535 E29.22589
G1 X60.26 Y181.312 E29.25773
G1 X59.812 Y181.183 E29.27323
G1 X59.399 Y181.055 E29.28761
G1 X58.578 Y180.749 E29.31676
G1 X58.21 Y180.594 E29.33004
G1 X57.638 Y180.333 E29.35095
G1 X57.425 Y180.228 E29.35885
G1 X56.793 Y179.889 E29.3827
G1 X56.662 Y179.813 E29.38774
G1 X56.39 Y179.649 E29.3983
G1 X56.208 Y179.536 E29.40543
G1 X55.419 Y178.996 E29.43723
G1 X55.013 Y178.69 E29.45414
G1 X54.055 Y177.874 E29.49599
G1 X53.834 Y177.662 E29.50618
G1 X53.365 Y177.184 E29.52845
G1 X53.038 Y176.828 E29.54453
G1 X52.216 Y175.814 E29.58794
G1 X51.962 Y175.458 E29.60249
G1 X51.659 Y175.008 E29.62053
G1 X51.435 Y174.647 E29.63466
G1 X51.322 Y174.456 E29.64204
G1 X50.874 Y173.615 E29.67374
G1 X50.666 Y173.178 E29.68983
G1 X50.401 Y172.573 E29.7118
G1 X50.354 Y172.456 E29.716
G1 X50.019 Y171.489 E29.75003
G1 X49.865 Y170.964 E29.76823
G1 X49.649 Y170.094 E29.79805
G1 X49.592 Y169.814 E29.80755
G1 X49.455 Y168.968 E29.83605
G1 X49.418 Y168.661 E29.84634
G1 X49.355 Y167.909 E29.87144
G1 X49.341 Y167.622 E29.881
G1 X49.329 Y167.269 E29.89274
G1 X49.315 Y166.262 E29.92624
G1 X49.315 Y47.591 E33.87325
G1 X49.324 Y46.971 E33.89388
G1 X49.334 Y46.651 E33.90452
G1 X49.352 Y46.249 E33.91791
G1 X49.366 Y45.989 E33.92657
G1 X49.376 Y45.845 E33.93137
G1 X49.488 Y44.879 E33.96371
G1 X49.546 Y44.522 E33.97574
G1 X49.62 Y44.116 E33.98947
G1 X49.852 Y43.155 E34.02235
G1 X49.997 Y42.657 E34.0396
G1 X50.414 Y41.486 E34.08095
G1 X50.572 Y41.113 E34.09442
G1 X50.815 Y40.579 E34.11393
G1 X50.918 Y40.369 E34.12171
G1 X51.271 Y39.709 E34.14661
G1 X51.346 Y39.58 E34.15157
G1 X51.604 Y39.156 E34.16808
G1 X52.161 Y38.341 E34.20091
G0 F6000 X52.48 Y38.582
G1 F1200 X52.781 Y38.183 E34.21753
G1 X53.574 Y37.254 E34.25816
G1 X53.829 Y36.989 E34.27039
G1 X54.293 Y36.536 E34.29196
G1 X54.599 Y36.256 E34.30575
G1 X55.546 Y35.489 E34.34629
G1 X55.909 Y35.229 E34.36114
G1 X56.356 Y34.925 E34.37912
G1 X56.428 Y34.879 E34.38196
G1 X56.805 Y34.65 E34.39663
G1 X57.069 Y34.497 E34.40678
G1 X57.651 Y34.184 E34.42876
G1 X57.778 Y34.121 E34.43347
G1 X58.239 Y33.907 E34.45038
G1 X58.51 Y33.789 E34.46021
G1 X58.936 Y33.615 E34.47551
G1 X59.017 Y33.584 E34.4784
G1 X59.784 Y33.325 E34.50532
G1 X60.304 Y33.172 E34.52335
G1 X61.495 Y32.898 E34.564
G1 X61.93 Y32.825 E34.57867
G1 X62.829 Y32.715 E34.60879
G1 X63.19 Y32.687 E34.62084
G1 X63.81 Y32.657 E34.64148
G1 X64.773 Y32.641 E34.67352
G1 X153.408 Y32.64 E37.62153
G1 X154.176 Y32.65 E37.64707
G1 X154.479 Y32.659 E37.65716
G1 X154.886 Y32.677 E37.67071
G1 X155.191 Y32.695 E37.68087
G1 X155.339 Y32.706 E37.6858
G1 X156.213 Y32.809 E37.71508
G1 X156.565 Y32.866 E37.72694
G1 X156.952 Y32.936 E37.74002
G1 X157.875 Y33.156 E37.77157
G1 X158.281 Y33.273 E37.78563
G1 X158.765 Y33.425 E37.8025
G1 X158.975 Y33.497 E37.80988
G1 X159.626 Y33.746 E37.83307
G1 X159.997 Y33.909 E37.84654
G1 X160.318 Y34.058 E37.85832
G1 X161.097 Y34.461 E37.88749
G1 X161.336 Y34.598 E37.89665
G1 X161.637 Y34.777 E37.9083
G1 X162.251 Y35.179 E37.93271
G1 X162.645 Y35.461 E37.94882
G1 X162.907 Y35.656 E37.95968
G1 X163.907 Y36.505 E38.00332
G1 X164.208 Y36.796 E38.01724
G1 X164.658 Y37.26 E38.03874
G1 X164.914 Y37.541 E38.05138
G1 X165.651 Y38.449 E38.09028
G1 X165.929 Y38.835 E38.1061
G1 X166.431 Y39.603 E38.13662
G1 X166.557 Y39.816 E38.14485
G1 X166.985 Y40.62 E38.17514
G1 X167.2 Y41.071 E38.19176
G1 X167.408 Y41.537 E38.20873
G1 X167.453 Y41.645 E38.21262
G1 X167.821 Y42.681 E38.24919
G1 X167.983 Y43.23 E38.26823
G1 X168.257 Y44.415 E38.30868
G1 X168.334 Y44.87 E38.32403
G1 X168.445 Y45.763 E38.35396
G1 X168.466 Y46.027 E38.36277
G1 X168.494 Y46.543 E38.37996
G1 X168.511 Y47.135 E38.39965
G1 X168.515 Y47.428 E38.4094
G1 X168.515 Y166.465 E42.36859
G1 X168.506 Y167.1 E42.38971
G1 X168.497 Y167.411 E42.40006
G1 X168.479 Y167.813 E42.41344
G1 X168.451 Y168.249 E42.42797
G1 X168.347 Y169.138 E42.45774
G1 X168.29 Y169.49 E42.4696
G1 X168.233 Y169.812 E42.48048
G1 X168.008 Y170.764 E42.51301
G1 X167.87 Y171.244 E42.52963
G1 X167.663 Y171.884 E42.552
G1 X167.592 Y172.081 E42.55896
G1 X167.245 Y172.924 E42.58928
G1 X167.152 Y173.124 E42.59662
G1 X166.877 Y173.671 E42.61698
G1 X166.649 Y174.093 E42.63294
G1 X166.309 Y174.676 E42.65538
G1 X166.231 Y174.8 E42.66026
G1 X165.747 Y175.503 E42.68864
G1 X165.461 Y175.883 E42.70446
G1 X164.654 Y176.828 E42.74579
G1 X164.386 Y177.106 E42.75864
G1 X163.932 Y177.549 E42.77974
G1 X163.635 Y177.821 E42.79313
G1 X162.692 Y178.587 E42.83354
G1 X162.324 Y178.851 E42.8486
G1 X161.819 Y179.191 E42.86885
G1 X161.54 Y179.363 E42.87975
G1 X161.343 Y179.48 E42.88737
G1 X160.518 Y179.92 E42.91847
G1 X160.081 Y180.128 E42.93457
G1 X159.529 Y180.371 E42.95463
G1 X159.418 Y180.416 E42.95861
G1 X158.484 Y180.743 E42.99152
G1 X157.934 Y180.906 E43.0106
G1 X156.738 Y181.183 E43.05144
G1 X156.289 Y181.259 E43.06658
G1 X155.384 Y181.371 E43.09691
G1 X155.116 Y181.392 E43.10585
G1 X154.636 Y181.418 E43.12184
G1 X154.121 Y181.434 E43.13898
G1 X153.804 Y181.439 E43.14952
G1 X64.682 Y181.439 E46.11373
G1 X64.024 Y181.43 E46.13562
G1 X63.701 Y181.42 E46.14637
G1 X63.116 Y181.391 E46.16585
G1 X62.946 Y181.379 E46.17152
G1 X62.049 Y181.275 E46.20155
G1 X61.656 Y181.212 E46.21479
G1 X61.267 Y181.142 E46.22794
G1 X60.371 Y180.928 E46.25858
G1 X59.923 Y180.799 E46.27408
G1 X59.523 Y180.675 E46.28801
G1 X58.734 Y180.38 E46.31603
G1 X58.366 Y180.225 E46.32931
G1 X57.815 Y179.974 E46.34945
G1 X57.602 Y179.869 E46.35735
G1 X56.993 Y179.543 E46.38032
G1 X56.862 Y179.467 E46.38536
G1 X56.601 Y179.31 E46.39549
G1 X56.419 Y179.197 E46.40261
G1 X55.66 Y178.677 E46.43321
G1 X55.254 Y178.371 E46.45012
G1 X54.332 Y177.586 E46.4904
G1 X54.111 Y177.374 E46.50058
G1 X53.66 Y176.913 E46.52203
G1 X53.333 Y176.557 E46.53811
G1 X52.542 Y175.581 E46.5799
G1 X52.288 Y175.225 E46.59444
G1 X51.994 Y174.791 E46.61188
G1 X51.779 Y174.444 E46.62545
G1 X51.666 Y174.253 E46.63283
G1 X51.235 Y173.443 E46.66335
G1 X51.027 Y173.006 E46.67945
G1 X50.772 Y172.424 E46.70058
G1 X50.725 Y172.307 E46.70478
G1 X50.402 Y171.376 E46.73755
G1 X50.248 Y170.851 E46.75575
G1 X50.041 Y170.015 E46.7844
G1 X49.984 Y169.735 E46.7939
G1 X49.852 Y168.92 E46.82136
G1 X49.815 Y168.613 E46.83164
G1 X49.754 Y167.89 E46.85578
G1 X49.74 Y167.603 E46.86533
G1 X49.729 Y167.263 E46.87665
G1 X49.715 Y166.262 E46.90994
G1 X49.715 Y47.597 E50.85676
G1 X49.724 Y46.977 E50.87738
G1 X49.733 Y46.669 E50.88763
G1 X49.751 Y46.267 E50.90101
G1 X49.776 Y45.872 E50.91418
